X: 4
T: Poll Ha'Penny
R: hornpipe
M: 4/4
L: 1/8
K: Ador
c>AA>^G A2 (3ABc | (3dcB (3AGF G2 (3Bcd | e>dc>A d>cA>^G | A2 A>^G A2 d>e |f2 f>d e2 e>^c | d2 (3AB^c d>ee>d | a>ge>d (3cBA G>B | A2 A>^G A2 :|g2 g>f g>ed>g | e>gg>f g>ed>g | e>aa>^g a2 a>=g | e>aa>^g a2- a>=g |f2 f>d e2 e>^c | d2 (3AB^c d>ee>d | a>ge>d (3cBA G>B | A2 A>^G A2 :|


Tune 841	Setting 841

